X: 24913
T: Maid At The Well, The
R: jig
M: 6/8
K: Gmajor
GDD EDD|GAB c2d|edc BcA|BGE EDF|
GDD EDD|GAB c2d|edc BcA|1 AGF G2F:|2 AGF GBd||
gdd edd|gdB c2d|edc BcA|BGE EDf|
gdd edd|gdB c2d|edc BcA|AGF GBd||
gdd edd|gdB c2d|edc BcA|BGE EDF|
GDD EDD|GAB c2d|edc BcA|AGF G3||

